X: 1
T: Cashmere Shawl, The
M: 4/4
L: 1/8
R: reel
K: Ador
~A3B AGEG|AGAB c2Bc|~A3B AGEF|1 gedB c2Bc:|2 gedB cBcd||
~e3g edBd|edge dGBd|~e3g edBd|efge d2Bd|
~e3g edBd|edge dGBd|eg~g2 eaaf|gedB cABG||
